_includes/icons/color-zip-file.svg

<svg fill="#666" height="50" viewBox="0 0 48 48" width="50" xmlns="http://www.w3.org/2000/svg"><path d="m40 45h-32v-42h22l10 10z" fill="#ff9100"/><g fill="#ffe0b2"><path d="m38.5 14h-9.5v-9.5z"/><path d="m17.394531 31.332031h4.101563v1.667969h-6.453125v-1.210937l4.058594-7.066407h-4.101563v-1.675781h6.417969v1.183594z"/><path d="m24.828125 33h-2.007812v-9.953125h2.007812z"/><path d="m28.527344 29.5v3.5h-2.007813v-9.953125h3.390625c.984375 0 1.769532.304688 2.351563.917969.585937.609375.878906 1.402344.878906 2.378906 0 .972656-.289062 1.742188-.867187 2.308594s-1.378907.847656-2.40625.847656zm0-1.675781h1.382812c.382813 0 .679688-.125.886719-.375.210938-.25.316406-.613281.316406-1.09375 0-.496094-.105468-.890625-.320312-1.1875-.214844-.292969-.503906-.441406-.863281-.445313h-1.398438v3.101563z"/></g></svg>

<svg xmlns="http://www.w3.org/2000/svg" viewBox="0 0 48 48" width="50" height="50" fill="#666"><path d="M 40 45 L 8 45 L 8 3 L 30 3 L 40 13 Z" fill="#ff9100"/><path d="M 38.5 14 L 29 14 L 29 4.5 Z" fill="#ffe0b2"/><path d="M 17.394531 31.332031 L 21.496094 31.332031 L 21.496094 33 L 15.042969 33 L 15.042969 31.789063 L 19.101563 24.722656 L 15 24.722656 L 15 23.046875 L 21.417969 23.046875 L 21.417969 24.230469 Z" fill="#ffe0b2"/><path d="M 24.828125 33 L 22.820313 33 L 22.820313 23.046875 L 24.828125 23.046875 Z" fill="#ffe0b2"/><path d="M 28.527344 29.5 L 28.527344 33 L 26.519531 33 L 26.519531 23.046875 L 29.910156 23.046875 C 30.894531 23.046875 31.679688 23.351563 32.261719 23.964844 C 32.847656 24.574219 33.140625 25.367188 33.140625 26.34375 C 33.140625 27.316406 32.851563 28.085938 32.273438 28.652344 C 31.695313 29.21875 30.894531 29.5 29.867188 29.5 Z M 28.527344 27.824219 L 29.910156 27.824219 C 30.292969 27.824219 30.589844 27.699219 30.796875 27.449219 C 31.007813 27.199219 31.113281 26.835938 31.113281 26.355469 C 31.113281 25.859375 31.007813 25.464844 30.792969 25.167969 C 30.578125 24.875 30.289063 24.726563 29.929688 24.722656 L 28.53125 24.722656 L 28.53125 27.824219 Z" fill="#ffe0b2"/></svg>
